Sources/FrostedUI/Resources/Icons.xcassets/pinTiltedFilled32.imageset/pin-tilted-filled-32.svg

<svg width="32" height="32" viewBox="0 0 32 32" fill="none" xmlns="http://www.w3.org/2000/svg" data-fui-icon="true">
  <path
    d="M16.9365 3.69946C18.4009 2.23528 20.7748 2.23542 22.2393 3.69946L28.25 9.71021C29.7144 11.1746 29.7143 13.5485 28.25 15.0129L22.915 20.3489C22.6638 20.6003 22.4701 20.9038 22.3477 21.2375L20.3184 26.7717C19.3754 29.3434 16.0825 30.0696 14.1455 28.1331L9.51172 23.4983L4.91602 28.095C4.62314 28.3878 4.14739 28.3878 3.85449 28.095C3.56191 27.8022 3.562 27.3273 3.85449 27.0344L8.45117 22.4377L3.81738 17.804C1.8809 15.867 2.60626 12.5742 5.17773 11.6311L10.7119 9.60278C11.0459 9.48034 11.35 9.2859 11.6016 9.03442L16.9365 3.69946Z"
    fill="currentColor"
  />
</svg>

<svg xmlns="http://www.w3.org/2000/svg" width="32" height="32" fill="none" data-fui-icon="true" viewBox="0 0 32 32"><path fill="currentColor" d="M16.937 3.7a3.75 3.75 0 0 1 5.302 0l6.011 6.01a3.75 3.75 0 0 1 0 5.303l-5.335 5.336a2.45 2.45 0 0 0-.567.889l-2.03 5.534c-.943 2.571-4.236 3.298-6.173 1.361l-4.633-4.635-4.596 4.597a.751.751 0 0 1-1.062-1.06l4.597-4.597-4.634-4.634c-1.936-1.937-1.21-5.23 1.36-6.173l5.535-2.028c.334-.123.638-.317.89-.569z"/></svg>
